svgs/weatherwise.svg

<svg width="192" height="192" viewBox="0 0 192 192" fill="none" xmlns="http://www.w3.org/2000/svg">
<path d="M106.432 147.241C103.924 131.358 90.211 119.655 73.4919 117.147C72.6291 112.704 69.8006 106.564 66.2391 103.002C56.1188 92.8817 39.7105 92.8817 29.5902 103.002C19.4699 113.122 19.4699 129.531 29.5902 139.651C34.2249 144.286 40.1784 146.798 46.2427 147.187C46.8031 147.223 47.3645 147.241 47.9258 147.241H106.432Z" stroke="black" stroke-width="12" stroke-linecap="round" stroke-linejoin="round"/>
<path d="M106.576 146.823C109.966 146.823 116.759 146.823 120.622 146.823C147.899 146.823 170 125.307 170 98.2022C170 71.0969 147.887 49.1237 120.61 49.1237C94.4679 49.1237 73.0696 69.3056 71.3334 94.8451" stroke="black" stroke-width="12" stroke-linecap="round" stroke-linejoin="round"/>
<path d="M103.954 104.726C79.9609 111.72 69.1843 92.8506 67.9917 90.7195C66.7991 88.5884 56.0648 63.5014 81.8115 49.9409C59.3953 45.6545 34.3548 68.4078 43.8964 95.268M103.955 104.727C98.8278 113.015 86.2672 118.78 73.6632 118.115" stroke="black" stroke-width="10" stroke-miterlimit="15" stroke-linecap="round" stroke-linejoin="round"/>
</svg>

<svg width="192" height="192" viewBox="0 0 192 192" fill="none" xmlns="http://www.w3.org/2000/svg"><path d="M106.432 147.241c-2.508-15.883-16.221-27.586-32.94-30.094-.863-4.443-3.691-10.583-7.253-14.145-10.12-10.12-26.529-10.12-36.649 0-10.12 10.12-10.12 26.529 0 36.649a25.81 25.81 0 0 0 16.653 7.536c.56.036 1.121.054 1.683.054h58.506Z" stroke="#000" stroke-width="12" stroke-linecap="round" stroke-linejoin="round"/><path d="M106.576 146.823h14.046c27.277 0 49.378-21.516 49.378-48.62 0-27.106-22.113-49.08-49.39-49.08-26.142 0-47.54 20.183-49.277 45.722" stroke="#000" stroke-width="12" stroke-linecap="round" stroke-linejoin="round"/><path d="M103.954 104.726c-23.993 6.994-34.77-11.875-35.962-14.007-1.193-2.13-11.927-27.218 13.82-40.778-22.417-4.287-47.457 18.467-37.916 45.327m60.059 9.459c-5.127 8.288-17.688 14.053-30.292 13.388" stroke="#000" stroke-width="10" stroke-miterlimit="15" stroke-linecap="round" stroke-linejoin="round"/></svg>
